src/pos-icons/corn.svg

<svg height="24" viewBox="0 0 24 24" width="24" xmlns="http://www.w3.org/2000/svg"><path d="m11 12h-2.18c.8.5 1.53 1.07 2.18 1.68zm-4-1c.27-5.12 2.37-9 5-9 2.66 0 4.77 3.94 5 9.12 1.5-.69 3.17-1.12 5-1.12-5.75 2.57-3.75 12-10 12-6 0-4.07-9.43-10-12 1.82 0 3.5.4 5 1m4 0v-2h-2.76l-.21 2zm0-3v-2h-1.95c-.25.6-.45 1.27-.62 2zm0-3v-1.7c-.55.33-1.05.92-1.5 1.7zm1-2v2h1v1h-1v2h2v1h-2v2h3v1h-3v2h2v1h-1.77c1.19 1.45 1.92 3 2.09 4.23.99-1.67 1.64-4.39 1.68-7.47-.06-4.76-1.87-8.76-4-8.76z"/></svg>

<?xml version="1.0" encoding="UTF-8"?><!DOCTYPE svg PUBLIC "-//W3C//DTD SVG 1.1//EN" "http://www.w3.org/Graphics/SVG/1.1/DTD/svg11.dtd"><svg xmlns="http://www.w3.org/2000/svg" xmlns:xlink="http://www.w3.org/1999/xlink" version="1.1" id="mdi-corn" width="24" height="24" viewBox="0 0 24 24"><path d="M11,12H8.82C9.62,12.5 10.35,13.07 11,13.68V12M7,11C7.27,5.88 9.37,2 12,2C14.66,2 16.77,5.94 17,11.12C18.5,10.43 20.17,10 22,10C16.25,12.57 18.25,22 12,22C6,22 7.93,12.57 2,10C3.82,10 5.5,10.4 7,11M11,11V9H8.24L8.03,11H11M11,8V6H9.05C8.8,6.6 8.6,7.27 8.43,8H11M11,5V3.3C10.45,3.63 9.95,4.22 9.5,5H11M12,3V5H13V6H12V8H14V9H12V11H15V12H12V14H14V15H12.23C13.42,16.45 14.15,18 14.32,19.23C15.31,17.56 15.96,14.84 16,11.76C15.94,7 14.13,3 12,3Z" /></svg>
